public/icons/Github.svg

<svg width="32" height="32" viewBox="0 0 32 32" fill="none" xmlns="http://www.w3.org/2000/svg">
<path d="M21.1228 28C20.8039 28 20.4981 27.8735 20.2726 27.6482C20.0472 27.423 19.9205 27.1175 19.9205 26.799V23.6763C19.9578 23.3171 19.9194 22.9541 19.8075 22.6106C19.6957 22.2672 19.513 21.9511 19.2712 21.6826C19.1216 21.5204 19.0195 21.3202 18.9762 21.1039C18.9329 20.8876 18.9501 20.6636 19.0258 20.4564C19.1016 20.2492 19.233 20.0668 19.4057 19.9293C19.5783 19.7918 19.7856 19.7045 20.0047 19.6768C22.9383 19.3285 25.6434 18.3917 25.6434 13.3114C25.6444 12.3627 25.3641 11.4349 24.8379 10.6451C24.3524 9.91802 24.1751 9.02834 24.345 8.17096C24.4533 7.61166 24.4533 7.0368 24.345 6.4775C23.4447 6.78158 22.597 7.22319 21.8321 7.78663C21.6875 7.88922 21.522 7.95857 21.3474 7.98971C21.1728 8.02086 20.9934 8.01303 20.8222 7.96678C18.6525 7.35433 16.3553 7.35433 14.1855 7.96678C14.0143 8.01303 13.835 8.02086 13.6604 7.98971C13.4857 7.95857 13.3202 7.88922 13.1756 7.78663C12.406 7.21667 11.5494 6.7746 10.6387 6.4775C10.5244 7.03621 10.5244 7.61225 10.6387 8.17096C10.7963 9.03913 10.611 9.93453 10.1217 10.6691C9.59786 11.4645 9.31789 12.3953 9.31621 13.3474C9.31621 18.0194 11.5765 19.2685 14.967 19.7009C15.1889 19.7284 15.3987 19.8171 15.5728 19.9571C15.747 20.0972 15.8786 20.2829 15.9529 20.4935C16.0228 20.6979 16.0363 20.9173 15.9918 21.1287C15.9474 21.3401 15.8467 21.5356 15.7004 21.6946C15.4666 21.9443 15.2871 22.2397 15.1733 22.5622C15.0595 22.8847 15.0138 23.2272 15.0392 23.5682V26.799C15.0392 27.1175 14.9125 27.423 14.687 27.6482C14.4615 27.8735 14.1557 28 13.8369 28C13.518 28 13.2122 27.8735 12.9867 27.6482C12.7612 27.423 12.6346 27.1175 12.6346 26.799V26.1144C11.4531 26.2501 10.2564 26.092 9.15099 25.654C8.04554 25.2161 7.06562 24.5119 6.29844 23.6042C5.90409 23.1676 5.43095 22.809 4.90377 22.5473C4.75062 22.5079 4.60674 22.4387 4.48035 22.3437C4.35396 22.2488 4.24754 22.1298 4.16715 21.9938C4.08677 21.8577 4.034 21.7072 4.01186 21.5507C3.98972 21.3943 3.99864 21.235 4.03811 21.0821C4.07758 20.9291 4.14683 20.7853 4.24191 20.6591C4.33699 20.5328 4.45603 20.4265 4.59223 20.3462C4.72844 20.2659 4.87914 20.2132 5.03574 20.1911C5.19234 20.169 5.35177 20.1779 5.50492 20.2173C6.42979 20.5539 7.25619 21.1152 7.90952 21.8507C9.11182 23.0517 10.3141 24.1087 12.5985 23.6763C12.5583 23.0314 12.6525 22.3853 12.875 21.7787C10.3983 21.1541 6.86352 19.3766 6.86352 13.3714C6.86035 11.949 7.27868 10.5574 8.06582 9.37199C8.21202 9.15317 8.26801 8.88641 8.22212 8.62735C7.97916 7.33093 8.11696 5.99197 8.61887 4.77204C8.68707 4.60938 8.79029 4.46371 8.9212 4.3454C9.05211 4.22708 9.2075 4.13901 9.37632 4.08745C9.7851 3.96735 11.2519 3.72714 14.0292 5.52869C16.2775 4.98823 18.622 4.98823 20.8703 5.52869C23.6476 3.72714 25.1144 3.95534 25.5112 4.08745C25.68 4.13901 25.8354 4.22708 25.9663 4.3454C26.0972 4.46371 26.2004 4.60938 26.2686 4.77204C26.7715 5.99593 26.9093 7.33901 26.6654 8.63936C26.6408 8.75653 26.6398 8.87741 26.6625 8.99496C26.6852 9.1125 26.7312 9.22434 26.7976 9.32395C27.5871 10.5127 28.0055 11.9088 27.9999 13.3354C27.9999 19.4246 24.4892 21.1901 21.9884 21.7426C22.2087 22.3871 22.2987 23.0689 22.253 23.7483V26.799C22.2535 27.1054 22.1368 27.4005 21.9267 27.6237C21.7166 27.847 21.429 27.9816 21.1228 28Z" fill="white"/>
</svg>

<svg width="32" height="32" fill="none" xmlns="http://www.w3.org/2000/svg"><path d="M21.123 28a1.203 1.203 0 0 1-1.203-1.201v-3.123a2.58 2.58 0 0 0-.649-1.993 1.201 1.201 0 0 1 .734-2.006c2.933-.349 5.638-1.285 5.638-6.366a4.8 4.8 0 0 0-.805-2.666 3.3 3.3 0 0 1-.493-2.474 4.454 4.454 0 0 0 0-1.693c-.9.304-1.748.745-2.513 1.309a1.202 1.202 0 0 1-1.01.18 12.216 12.216 0 0 0-6.636 0 1.203 1.203 0 0 1-1.01-.18 8.901 8.901 0 0 0-2.537-1.31 4.225 4.225 0 0 0 0 1.694 3.408 3.408 0 0 1-.517 2.498 4.885 4.885 0 0 0-.806 2.678c0 4.672 2.26 5.921 5.651 6.354a1.203 1.203 0 0 1 .986.793 1.2 1.2 0 0 1-.253 1.2 2.474 2.474 0 0 0-.66 1.874V26.8A1.2 1.2 0 0 1 13.836 28a1.203 1.203 0 0 1-1.202-1.201v-.685a7.22 7.22 0 0 1-6.337-2.51 4.689 4.689 0 0 0-1.394-1.057 1.204 1.204 0 1 1 .6-2.33 5.928 5.928 0 0 1 2.406 1.634c1.202 1.2 2.404 2.258 4.688 1.825a4.667 4.667 0 0 1 .277-1.897c-2.477-.625-6.011-2.402-6.011-8.408a7.2 7.2 0 0 1 1.202-3.999 1.02 1.02 0 0 0 .156-.745 6.827 6.827 0 0 1 .397-3.855 1.201 1.201 0 0 1 .757-.685c.41-.12 1.876-.36 4.653 1.442 2.248-.54 4.593-.54 6.841 0 2.778-1.802 4.244-1.574 4.641-1.442a1.203 1.203 0 0 1 .758.685 6.852 6.852 0 0 1 .396 3.867.9.9 0 0 0 .133.685A7.2 7.2 0 0 1 28 13.335c0 6.09-3.51 7.855-6.012 8.408.22.644.31 1.326.265 2.005V26.8A1.2 1.2 0 0 1 21.123 28Z" fill="#fff"/></svg>
